X:168
T:Lady Baird’s Strathspey. RHu.164
S:R.Hughes MS,1823,Whitchurch,Shrops.
A:Whitchurch, Shropshire
Z:Tony Weatherall 2006
M:C
L:1/8
Q:1/2=70
R:Strathspey
K:D
d’|a<ff>e d>eda|B>dA>d Bdad’|\
a<ff>e d>cde|f<aa^g a3 d’|!
a<ff>e d>eda|B<da<d BdAd’|\
a<ff>e d>cde|f<aa>6g a3||!
=c’|b<gg>e f>gaf|g<eec d>efA|\
B>dA>d BdAb|b/a/g/f/ a/g/f/e/ d2db/=c’/|!
a>gg>e f>g b/a/g/f/|g>ee>c d>e g/f/e/d/|\
B<dA<d BdAb|b/a/g/f/ a/g/f/e/ d2d|]

